Icons/TM_Icons/more icons/computer-floppy4.svg

<?xml version='1.0' encoding='utf-8'?>
<ns0:svg xmlns:ns0="http://www.w3.org/2000/svg" version="1.1" viewBox="332.0 0.0 1383.0 1383.0" role="img" focusable="false" preserveAspectRatio="xMidYMid meet">
   <ns0:path fill="currentColor" d="M1700 724l-95 76h-1258v-1383h1353v1307zM1229 52c-0.00976562 -50.667 -17.8398 -93.834 -53.5 -129.5c-35.6699 -35.6689 -78.8301 -53.5029 -129.5 -53.5c-50 0 -92.833 17.833 -128.5 53.5s-53.5 78.833 -53.5 129.5c0.00195312 50.667 17.835 93.833 53.5 129.5 c35.667 35.667 78.5 53.5 128.5 53.5c50.6699 -0.00195312 93.8301 -17.835 129.5 -53.5c35.6699 -35.667 53.5 -78.834 53.5 -129.5zM506 -397v-164h-122v164h122zM1435 760v-445h-669v445h669zM1079 81h-64v-61h64v61zM490 -418h-92v-66h92v66zM1361 694h-37v16h-69v-16 h-45v-339h151v339z" />
</ns0:svg>

<svg xmlns="http://www.w3.org/2000/svg" width="400" height="200" viewBox="-359.5 -583 2766 1383"><path fill="currentColor" d="m1700 724-95 76H347V-583h1353zM1229 52c-.01-50.667-17.84-93.834-53.5-129.5-35.67-35.669-78.83-53.503-129.5-53.5q-75 0-128.5 53.5C864-24 864 1.333 864 52q.003 76 53.5 129.5Q971 235 1046 235c50.67-.002 93.83-17.835 129.5-53.5 35.67-35.667 53.5-78.834 53.5-129.5M506-397v-164H384v164zm929 1157V315H766v445zM1079 81h-64V20h64zM490-418h-92v-66h92zm871 1112h-37v16h-69v-16h-45V355h151z"/></svg>
